X: 18039
T: Humours Of Andytown, The
R: reel
M: 4/4
K: Gmajor
~a3b agfb|gafd efgb|az~a2 agfa|gafg efg^g|
az~a2 agfb|gafd efgb|afge fded|(3B^cd eg fdef||
|:g2fg edBA|~G3B AGED|g2fg ed (3B^cd|1 eaag fdef:|2 eaag fdBA||
|:~G3A B2BA|~G3B AGED|DG~G2 BA (3B^cd|1 eaag fdBA:|2 eaag fdfg||

